(Exported by FreeCAD)
(Post Processor: script_module)
(Output Time:2025-05-05 23:15:43.576621)
(Begin preamble)
G17 G90
G21
(Begin operation: Fixture)
(Path: Fixture)
G54
(Finish operation: Fixture)
(Begin operation: 6mm Schaftfr채ser001)
(Path: 6mm Schaftfr채ser001)
(6mm Schaftfr채ser001)
(Begin toolchange)
( M6 T1 )
M3 S10000
(Finish operation: 6mm Schaftfr채ser001)
(Begin operation: Drilling)
(Path: Drilling)
(Drilling)
(Begin Drilling)
G0 Z4.000
G90
G98
G0 X31.000 Y39.750
G81 X31.000 Y39.750 Z-23.000 F120.000 R2.000
G0 X87.000 Y39.750
G81 X87.000 Y39.750 Z-23.000 F120.000 R2.000
G0 X87.000 Y242.250
G81 X87.000 Y242.250 Z-23.000 F120.000 R2.000
G0 X31.000 Y242.250
G81 X31.000 Y242.250 Z-23.000 F120.000 R2.000
G80
G0 Z2.000
G0 Z4.000
(Finish operation: Drilling)
(Begin operation: Pocket3D)
(Path: Pocket3D)
(Pocket3D)
G0 Z4.000
G0 X31.702 Y242.952
G0 Z2.000
G1 X31.702 Y242.952 Z-3.000 F120.000
G2 X31.573 Y241.439 Z-3.000 I-0.702 J-0.702 K0.000 F750.000
G1 X31.457 Y241.368 Z-3.000 F750.000
G2 X30.446 Y243.075 Z-3.000 I-0.457 J0.882 K0.000 F750.000
G2 X31.702 Y242.952 Z-3.000 I0.554 J-0.824 K0.000 F750.000
G1 X31.702 Y242.952 Z-5.000 F120.000
G2 X31.573 Y241.439 Z-5.000 I-0.702 J-0.702 K0.000 F750.000
G1 X31.457 Y241.368 Z-5.000 F750.000
G2 X30.446 Y243.075 Z-5.000 I-0.457 J0.882 K0.000 F750.000
G2 X31.702 Y242.952 Z-5.000 I0.554 J-0.824 K0.000 F750.000
G1 X31.702 Y242.952 Z-7.000 F120.000
G2 X31.573 Y241.439 Z-7.000 I-0.702 J-0.702 K0.000 F750.000
G1 X31.457 Y241.368 Z-7.000 F750.000
G2 X30.446 Y243.075 Z-7.000 I-0.457 J0.882 K0.000 F750.000
G2 X31.702 Y242.952 Z-7.000 I0.554 J-0.824 K0.000 F750.000
G1 X31.702 Y242.952 Z-9.000 F120.000
G2 X31.573 Y241.439 Z-9.000 I-0.702 J-0.702 K0.000 F750.000
G1 X31.457 Y241.368 Z-9.000 F750.000
G2 X30.446 Y243.075 Z-9.000 I-0.457 J0.882 K0.000 F750.000
G2 X31.702 Y242.952 Z-9.000 I0.554 J-0.824 K0.000 F750.000
G1 X31.702 Y242.952 Z-11.000 F120.000
G2 X31.573 Y241.439 Z-11.000 I-0.702 J-0.702 K0.000 F750.000
G1 X31.457 Y241.368 Z-11.000 F750.000
G2 X30.446 Y243.075 Z-11.000 I-0.457 J0.882 K0.000 F750.000
G2 X31.702 Y242.952 Z-11.000 I0.554 J-0.824 K0.000 F750.000
G1 X31.702 Y242.952 Z-13.000 F120.000
G2 X31.573 Y241.439 Z-13.000 I-0.702 J-0.702 K0.000 F750.000
G1 X31.457 Y241.368 Z-13.000 F750.000
G2 X30.446 Y243.075 Z-13.000 I-0.457 J0.882 K0.000 F750.000
G2 X31.702 Y242.952 Z-13.000 I0.554 J-0.824 K0.000 F750.000
G1 X31.702 Y242.952 Z-15.000 F120.000
G2 X31.573 Y241.439 Z-15.000 I-0.702 J-0.702 K0.000 F750.000
G1 X31.457 Y241.368 Z-15.000 F750.000
G2 X30.446 Y243.075 Z-15.000 I-0.457 J0.882 K0.000 F750.000
G2 X31.702 Y242.952 Z-15.000 I0.554 J-0.824 K0.000 F750.000
G0 Z4.000
G0 Z4.000
(Finish operation: Pocket3D)
(Begin operation: Pocket3D001)
(Path: Pocket3D001)
(Pocket3D001)
G0 Z4.000
G0 X87.702 Y242.952
G0 Z2.000
G1 X87.702 Y242.952 Z-3.000 F120.000
G2 X87.770 Y241.623 Z-3.000 I-0.702 J-0.702 K0.000 F750.000
G2 X86.373 Y241.480 Z-3.000 I-0.770 J0.627 K0.000 F750.000
G2 X86.230 Y242.877 Z-3.000 I0.627 J0.770 K0.000 F750.000
G2 X87.702 Y242.952 Z-3.000 I0.770 J-0.627 K0.000 F750.000
G1 X87.702 Y242.952 Z-5.000 F120.000
G2 X87.770 Y241.623 Z-5.000 I-0.702 J-0.702 K0.000 F750.000
G2 X86.373 Y241.480 Z-5.000 I-0.770 J0.627 K0.000 F750.000
G2 X86.230 Y242.877 Z-5.000 I0.627 J0.770 K0.000 F750.000
G2 X87.702 Y242.952 Z-5.000 I0.770 J-0.627 K0.000 F750.000
G1 X87.702 Y242.952 Z-7.000 F120.000
G2 X87.770 Y241.623 Z-7.000 I-0.702 J-0.702 K0.000 F750.000
G2 X86.373 Y241.480 Z-7.000 I-0.770 J0.627 K0.000 F750.000
G2 X86.230 Y242.877 Z-7.000 I0.627 J0.770 K0.000 F750.000
G2 X87.702 Y242.952 Z-7.000 I0.770 J-0.627 K0.000 F750.000
G1 X87.702 Y242.952 Z-9.000 F120.000
G2 X87.770 Y241.623 Z-9.000 I-0.702 J-0.702 K0.000 F750.000
G2 X86.373 Y241.480 Z-9.000 I-0.770 J0.627 K0.000 F750.000
G2 X86.230 Y242.877 Z-9.000 I0.627 J0.770 K0.000 F750.000
G2 X87.702 Y242.952 Z-9.000 I0.770 J-0.627 K0.000 F750.000
G1 X87.702 Y242.952 Z-11.000 F120.000
G2 X87.770 Y241.623 Z-11.000 I-0.702 J-0.702 K0.000 F750.000
G2 X86.373 Y241.480 Z-11.000 I-0.770 J0.627 K0.000 F750.000
G2 X86.230 Y242.877 Z-11.000 I0.627 J0.770 K0.000 F750.000
G2 X87.702 Y242.952 Z-11.000 I0.770 J-0.627 K0.000 F750.000
G1 X87.702 Y242.952 Z-13.000 F120.000
G2 X87.770 Y241.623 Z-13.000 I-0.702 J-0.702 K0.000 F750.000
G2 X86.373 Y241.480 Z-13.000 I-0.770 J0.627 K0.000 F750.000
G2 X86.230 Y242.877 Z-13.000 I0.627 J0.770 K0.000 F750.000
G2 X87.702 Y242.952 Z-13.000 I0.770 J-0.627 K0.000 F750.000
G1 X87.702 Y242.952 Z-15.000 F120.000
G2 X87.770 Y241.623 Z-15.000 I-0.702 J-0.702 K0.000 F750.000
G2 X86.373 Y241.480 Z-15.000 I-0.770 J0.627 K0.000 F750.000
G2 X86.230 Y242.877 Z-15.000 I0.627 J0.770 K0.000 F750.000
G2 X87.702 Y242.952 Z-15.000 I0.770 J-0.627 K0.000 F750.000
G0 Z4.000
G0 Z4.000
(Finish operation: Pocket3D001)
(Begin operation: Pocket3D002)
(Path: Pocket3D002)
(Pocket3D002)
G0 Z4.000
G0 X87.702 Y40.452
G0 Z2.000
G1 X87.702 Y40.452 Z-3.000 F120.000
G2 X87.770 Y39.123 Z-3.000 I-0.702 J-0.702 K0.000 F750.000
G2 X86.373 Y38.980 Z-3.000 I-0.770 J0.627 K0.000 F750.000
G2 X86.230 Y40.377 Z-3.000 I0.627 J0.770 K0.000 F750.000
G2 X87.702 Y40.452 Z-3.000 I0.770 J-0.627 K0.000 F750.000
G1 X87.702 Y40.452 Z-5.000 F120.000
G2 X87.770 Y39.123 Z-5.000 I-0.702 J-0.702 K0.000 F750.000
G2 X86.373 Y38.980 Z-5.000 I-0.770 J0.627 K0.000 F750.000
G2 X86.230 Y40.377 Z-5.000 I0.627 J0.770 K0.000 F750.000
G2 X87.702 Y40.452 Z-5.000 I0.770 J-0.627 K0.000 F750.000
G1 X87.702 Y40.452 Z-7.000 F120.000
G2 X87.770 Y39.123 Z-7.000 I-0.702 J-0.702 K0.000 F750.000
G2 X86.373 Y38.980 Z-7.000 I-0.770 J0.627 K0.000 F750.000
G2 X86.230 Y40.377 Z-7.000 I0.627 J0.770 K0.000 F750.000
G2 X87.702 Y40.452 Z-7.000 I0.770 J-0.627 K0.000 F750.000
G1 X87.702 Y40.452 Z-9.000 F120.000
G2 X87.770 Y39.123 Z-9.000 I-0.702 J-0.702 K0.000 F750.000
G2 X86.373 Y38.980 Z-9.000 I-0.770 J0.627 K0.000 F750.000
G2 X86.230 Y40.377 Z-9.000 I0.627 J0.770 K0.000 F750.000
G2 X87.702 Y40.452 Z-9.000 I0.770 J-0.627 K0.000 F750.000
G1 X87.702 Y40.452 Z-11.000 F120.000
G2 X87.770 Y39.123 Z-11.000 I-0.702 J-0.702 K0.000 F750.000
G2 X86.373 Y38.980 Z-11.000 I-0.770 J0.627 K0.000 F750.000
G2 X86.230 Y40.377 Z-11.000 I0.627 J0.770 K0.000 F750.000
G2 X87.702 Y40.452 Z-11.000 I0.770 J-0.627 K0.000 F750.000
G1 X87.702 Y40.452 Z-13.000 F120.000
G2 X87.770 Y39.123 Z-13.000 I-0.702 J-0.702 K0.000 F750.000
G2 X86.373 Y38.980 Z-13.000 I-0.770 J0.627 K0.000 F750.000
G2 X86.230 Y40.377 Z-13.000 I0.627 J0.770 K0.000 F750.000
G2 X87.702 Y40.452 Z-13.000 I0.770 J-0.627 K0.000 F750.000
G1 X87.702 Y40.452 Z-15.000 F120.000
G2 X87.770 Y39.123 Z-15.000 I-0.702 J-0.702 K0.000 F750.000
G2 X86.373 Y38.980 Z-15.000 I-0.770 J0.627 K0.000 F750.000
G2 X86.230 Y40.377 Z-15.000 I0.627 J0.770 K0.000 F750.000
G2 X87.702 Y40.452 Z-15.000 I0.770 J-0.627 K0.000 F750.000
G0 Z4.000
G0 Z4.000
(Finish operation: Pocket3D002)
(Begin operation: Pocket3D003)
(Path: Pocket3D003)
(Pocket3D003)
G0 Z4.000
G0 X31.702 Y40.452
G0 Z2.000
G1 X31.702 Y40.452 Z-3.000 F120.000
G2 X31.573 Y38.939 Z-3.000 I-0.702 J-0.702 K0.000 F750.000
G1 X31.457 Y38.868 Z-3.000 F750.000
G2 X30.446 Y40.575 Z-3.000 I-0.457 J0.882 K0.000 F750.000
G2 X31.702 Y40.452 Z-3.000 I0.554 J-0.824 K0.000 F750.000
G1 X31.702 Y40.452 Z-5.000 F120.000
G2 X31.573 Y38.939 Z-5.000 I-0.702 J-0.702 K0.000 F750.000
G1 X31.457 Y38.868 Z-5.000 F750.000
G2 X30.446 Y40.575 Z-5.000 I-0.457 J0.882 K0.000 F750.000
G2 X31.702 Y40.452 Z-5.000 I0.554 J-0.824 K0.000 F750.000
G1 X31.702 Y40.452 Z-7.000 F120.000
G2 X31.573 Y38.939 Z-7.000 I-0.702 J-0.702 K0.000 F750.000
G1 X31.457 Y38.868 Z-7.000 F750.000
G2 X30.446 Y40.575 Z-7.000 I-0.457 J0.882 K0.000 F750.000
G2 X31.702 Y40.452 Z-7.000 I0.554 J-0.824 K0.000 F750.000
G1 X31.702 Y40.452 Z-9.000 F120.000
G2 X31.573 Y38.939 Z-9.000 I-0.702 J-0.702 K0.000 F750.000
G1 X31.457 Y38.868 Z-9.000 F750.000
G2 X30.446 Y40.575 Z-9.000 I-0.457 J0.882 K0.000 F750.000
G2 X31.702 Y40.452 Z-9.000 I0.554 J-0.824 K0.000 F750.000
G1 X31.702 Y40.452 Z-11.000 F120.000
G2 X31.573 Y38.939 Z-11.000 I-0.702 J-0.702 K0.000 F750.000
G1 X31.457 Y38.868 Z-11.000 F750.000
G2 X30.446 Y40.575 Z-11.000 I-0.457 J0.882 K0.000 F750.000
G2 X31.702 Y40.452 Z-11.000 I0.554 J-0.824 K0.000 F750.000
G1 X31.702 Y40.452 Z-13.000 F120.000
G2 X31.573 Y38.939 Z-13.000 I-0.702 J-0.702 K0.000 F750.000
G1 X31.457 Y38.868 Z-13.000 F750.000
G2 X30.446 Y40.575 Z-13.000 I-0.457 J0.882 K0.000 F750.000
G2 X31.702 Y40.452 Z-13.000 I0.554 J-0.824 K0.000 F750.000
G1 X31.702 Y40.452 Z-15.000 F120.000
G2 X31.573 Y38.939 Z-15.000 I-0.702 J-0.702 K0.000 F750.000
G1 X31.457 Y38.868 Z-15.000 F750.000
G2 X30.446 Y40.575 Z-15.000 I-0.457 J0.882 K0.000 F750.000
G2 X31.702 Y40.452 Z-15.000 I0.554 J-0.824 K0.000 F750.000
G0 Z4.000
G0 Z4.000
(Finish operation: Pocket3D003)
(Begin operation: Profile)
(Path: Profile)
(Profile)
(Compensated Tool Path. Diameter: 6.0)
G0 Z4.000
G0 X58.121 Y278.121
G0 Z2.000
G1 X58.121 Y278.121 Z-1.000 F120.000
G2 X59.000 Y276.000 Z-1.000 I-2.121 J-2.121 K0.000 F750.000
G1 X59.000 Y6.000 Z-1.000 F750.000
G2 X56.000 Y3.000 Z-1.000 I-3.000 J0.000 K0.000 F750.000
G1 X6.000 Y3.000 Z-1.000 F750.000
G2 X3.000 Y6.000 Z-1.000 I0.000 J3.000 K0.000 F750.000
G1 X3.000 Y276.000 Z-1.000 F750.000
G2 X6.000 Y279.000 Z-1.000 I3.000 J0.000 K0.000 F750.000
G1 X56.000 Y279.000 Z-1.000 F750.000
G2 X58.121 Y278.121 Z-1.000 I0.000 J-3.000 K0.000 F750.000
G1 X58.121 Y278.121 Z-2.000 F120.000
G2 X59.000 Y276.000 Z-2.000 I-2.121 J-2.121 K0.000 F750.000
G1 X59.000 Y6.000 Z-2.000 F750.000
G2 X56.000 Y3.000 Z-2.000 I-3.000 J0.000 K0.000 F750.000
G1 X6.000 Y3.000 Z-2.000 F750.000
G2 X3.000 Y6.000 Z-2.000 I0.000 J3.000 K0.000 F750.000
G1 X3.000 Y276.000 Z-2.000 F750.000
G2 X6.000 Y279.000 Z-2.000 I3.000 J0.000 K0.000 F750.000
G1 X56.000 Y279.000 Z-2.000 F750.000
G2 X58.121 Y278.121 Z-2.000 I0.000 J-3.000 K0.000 F750.000
G1 X58.121 Y278.121 Z-3.000 F120.000
G2 X59.000 Y276.000 Z-3.000 I-2.121 J-2.121 K0.000 F750.000
G1 X59.000 Y6.000 Z-3.000 F750.000
G2 X56.000 Y3.000 Z-3.000 I-3.000 J0.000 K0.000 F750.000
G1 X6.000 Y3.000 Z-3.000 F750.000
G2 X3.000 Y6.000 Z-3.000 I0.000 J3.000 K0.000 F750.000
G1 X3.000 Y276.000 Z-3.000 F750.000
G2 X6.000 Y279.000 Z-3.000 I3.000 J0.000 K0.000 F750.000
G1 X56.000 Y279.000 Z-3.000 F750.000
G2 X58.121 Y278.121 Z-3.000 I0.000 J-3.000 K0.000 F750.000
G1 X58.121 Y278.121 Z-4.000 F120.000
G2 X59.000 Y276.000 Z-4.000 I-2.121 J-2.121 K0.000 F750.000
G1 X59.000 Y6.000 Z-4.000 F750.000
G2 X56.000 Y3.000 Z-4.000 I-3.000 J0.000 K0.000 F750.000
G1 X6.000 Y3.000 Z-4.000 F750.000
G2 X3.000 Y6.000 Z-4.000 I0.000 J3.000 K0.000 F750.000
G1 X3.000 Y276.000 Z-4.000 F750.000
G2 X6.000 Y279.000 Z-4.000 I3.000 J0.000 K0.000 F750.000
G1 X56.000 Y279.000 Z-4.000 F750.000
G2 X58.121 Y278.121 Z-4.000 I0.000 J-3.000 K0.000 F750.000
G1 X58.121 Y278.121 Z-5.000 F120.000
G2 X59.000 Y276.000 Z-5.000 I-2.121 J-2.121 K0.000 F750.000
G1 X59.000 Y6.000 Z-5.000 F750.000
G2 X56.000 Y3.000 Z-5.000 I-3.000 J0.000 K0.000 F750.000
G1 X6.000 Y3.000 Z-5.000 F750.000
G2 X3.000 Y6.000 Z-5.000 I0.000 J3.000 K0.000 F750.000
G1 X3.000 Y276.000 Z-5.000 F750.000
G2 X6.000 Y279.000 Z-5.000 I3.000 J0.000 K0.000 F750.000
G1 X56.000 Y279.000 Z-5.000 F750.000
G2 X58.121 Y278.121 Z-5.000 I0.000 J-3.000 K0.000 F750.000
G1 X58.121 Y278.121 Z-6.000 F120.000
G2 X59.000 Y276.000 Z-6.000 I-2.121 J-2.121 K0.000 F750.000
G1 X59.000 Y6.000 Z-6.000 F750.000
G2 X56.000 Y3.000 Z-6.000 I-3.000 J0.000 K0.000 F750.000
G1 X6.000 Y3.000 Z-6.000 F750.000
G2 X3.000 Y6.000 Z-6.000 I0.000 J3.000 K0.000 F750.000
G1 X3.000 Y276.000 Z-6.000 F750.000
G2 X6.000 Y279.000 Z-6.000 I3.000 J0.000 K0.000 F750.000
G1 X56.000 Y279.000 Z-6.000 F750.000
G2 X58.121 Y278.121 Z-6.000 I0.000 J-3.000 K0.000 F750.000
G1 X58.121 Y278.121 Z-7.000 F120.000
G2 X59.000 Y276.000 Z-7.000 I-2.121 J-2.121 K0.000 F750.000
G1 X59.000 Y6.000 Z-7.000 F750.000
G2 X56.000 Y3.000 Z-7.000 I-3.000 J0.000 K0.000 F750.000
G1 X6.000 Y3.000 Z-7.000 F750.000
G2 X3.000 Y6.000 Z-7.000 I0.000 J3.000 K0.000 F750.000
G1 X3.000 Y276.000 Z-7.000 F750.000
G2 X6.000 Y279.000 Z-7.000 I3.000 J0.000 K0.000 F750.000
G1 X56.000 Y279.000 Z-7.000 F750.000
G2 X58.121 Y278.121 Z-7.000 I0.000 J-3.000 K0.000 F750.000
G1 X58.121 Y278.121 Z-8.000 F120.000
G2 X59.000 Y276.000 Z-8.000 I-2.121 J-2.121 K0.000 F750.000
G1 X59.000 Y6.000 Z-8.000 F750.000
G2 X56.000 Y3.000 Z-8.000 I-3.000 J0.000 K0.000 F750.000
G1 X6.000 Y3.000 Z-8.000 F750.000
G2 X3.000 Y6.000 Z-8.000 I0.000 J3.000 K0.000 F750.000
G1 X3.000 Y276.000 Z-8.000 F750.000
G2 X6.000 Y279.000 Z-8.000 I3.000 J0.000 K0.000 F750.000
G1 X56.000 Y279.000 Z-8.000 F750.000
G2 X58.121 Y278.121 Z-8.000 I0.000 J-3.000 K0.000 F750.000
G1 X58.121 Y278.121 Z-9.000 F120.000
G2 X59.000 Y276.000 Z-9.000 I-2.121 J-2.121 K0.000 F750.000
G1 X59.000 Y6.000 Z-9.000 F750.000
G2 X56.000 Y3.000 Z-9.000 I-3.000 J0.000 K0.000 F750.000
G1 X6.000 Y3.000 Z-9.000 F750.000
G2 X3.000 Y6.000 Z-9.000 I0.000 J3.000 K0.000 F750.000
G1 X3.000 Y276.000 Z-9.000 F750.000
G2 X6.000 Y279.000 Z-9.000 I3.000 J0.000 K0.000 F750.000
G1 X56.000 Y279.000 Z-9.000 F750.000
G2 X58.121 Y278.121 Z-9.000 I0.000 J-3.000 K0.000 F750.000
G1 X58.121 Y278.121 Z-10.000 F120.000
G2 X59.000 Y276.000 Z-10.000 I-2.121 J-2.121 K0.000 F750.000
G1 X59.000 Y6.000 Z-10.000 F750.000
G2 X56.000 Y3.000 Z-10.000 I-3.000 J0.000 K0.000 F750.000
G1 X6.000 Y3.000 Z-10.000 F750.000
G2 X3.000 Y6.000 Z-10.000 I0.000 J3.000 K0.000 F750.000
G1 X3.000 Y276.000 Z-10.000 F750.000
G2 X6.000 Y279.000 Z-10.000 I3.000 J0.000 K0.000 F750.000
G1 X56.000 Y279.000 Z-10.000 F750.000
G2 X58.121 Y278.121 Z-10.000 I0.000 J-3.000 K0.000 F750.000
G1 X58.121 Y278.121 Z-11.000 F120.000
G2 X59.000 Y276.000 Z-11.000 I-2.121 J-2.121 K0.000 F750.000
G1 X59.000 Y6.000 Z-11.000 F750.000
G2 X56.000 Y3.000 Z-11.000 I-3.000 J0.000 K0.000 F750.000
G1 X6.000 Y3.000 Z-11.000 F750.000
G2 X3.000 Y6.000 Z-11.000 I0.000 J3.000 K0.000 F750.000
G1 X3.000 Y276.000 Z-11.000 F750.000
G2 X6.000 Y279.000 Z-11.000 I3.000 J0.000 K0.000 F750.000
G1 X56.000 Y279.000 Z-11.000 F750.000
G2 X58.121 Y278.121 Z-11.000 I0.000 J-3.000 K0.000 F750.000
G1 X58.121 Y278.121 Z-12.000 F120.000
G2 X59.000 Y276.000 Z-12.000 I-2.121 J-2.121 K0.000 F750.000
G1 X59.000 Y6.000 Z-12.000 F750.000
G2 X56.000 Y3.000 Z-12.000 I-3.000 J0.000 K0.000 F750.000
G1 X6.000 Y3.000 Z-12.000 F750.000
G2 X3.000 Y6.000 Z-12.000 I0.000 J3.000 K0.000 F750.000
G1 X3.000 Y276.000 Z-12.000 F750.000
G2 X6.000 Y279.000 Z-12.000 I3.000 J0.000 K0.000 F750.000
G1 X56.000 Y279.000 Z-12.000 F750.000
G2 X58.121 Y278.121 Z-12.000 I0.000 J-3.000 K0.000 F750.000
G1 X58.121 Y278.121 Z-13.000 F120.000
G2 X59.000 Y276.000 Z-13.000 I-2.121 J-2.121 K0.000 F750.000
G1 X59.000 Y6.000 Z-13.000 F750.000
G2 X56.000 Y3.000 Z-13.000 I-3.000 J0.000 K0.000 F750.000
G1 X6.000 Y3.000 Z-13.000 F750.000
G2 X3.000 Y6.000 Z-13.000 I0.000 J3.000 K0.000 F750.000
G1 X3.000 Y276.000 Z-13.000 F750.000
G2 X6.000 Y279.000 Z-13.000 I3.000 J0.000 K0.000 F750.000
G1 X56.000 Y279.000 Z-13.000 F750.000
G2 X58.121 Y278.121 Z-13.000 I0.000 J-3.000 K0.000 F750.000
G1 X58.121 Y278.121 Z-14.000 F120.000
G2 X59.000 Y276.000 Z-14.000 I-2.121 J-2.121 K0.000 F750.000
G1 X59.000 Y6.000 Z-14.000 F750.000
G2 X56.000 Y3.000 Z-14.000 I-3.000 J0.000 K0.000 F750.000
G1 X6.000 Y3.000 Z-14.000 F750.000
G2 X3.000 Y6.000 Z-14.000 I0.000 J3.000 K0.000 F750.000
G1 X3.000 Y276.000 Z-14.000 F750.000
G2 X6.000 Y279.000 Z-14.000 I3.000 J0.000 K0.000 F750.000
G1 X56.000 Y279.000 Z-14.000 F750.000
G2 X58.121 Y278.121 Z-14.000 I0.000 J-3.000 K0.000 F750.000
G1 X58.121 Y278.121 Z-15.000 F120.000
G2 X59.000 Y276.000 Z-15.000 I-2.121 J-2.121 K0.000 F750.000
G1 X59.000 Y6.000 Z-15.000 F750.000
G2 X56.000 Y3.000 Z-15.000 I-3.000 J0.000 K0.000 F750.000
G1 X6.000 Y3.000 Z-15.000 F750.000
G2 X3.000 Y6.000 Z-15.000 I0.000 J3.000 K0.000 F750.000
G1 X3.000 Y276.000 Z-15.000 F750.000
G2 X6.000 Y279.000 Z-15.000 I3.000 J0.000 K0.000 F750.000
G1 X56.000 Y279.000 Z-15.000 F750.000
G2 X58.121 Y278.121 Z-15.000 I0.000 J-3.000 K0.000 F750.000
G1 X58.121 Y278.121 Z-16.000 F120.000
G2 X59.000 Y276.000 Z-16.000 I-2.121 J-2.121 K0.000 F750.000
G1 X59.000 Y6.000 Z-16.000 F750.000
G2 X56.000 Y3.000 Z-16.000 I-3.000 J0.000 K0.000 F750.000
G1 X6.000 Y3.000 Z-16.000 F750.000
G2 X3.000 Y6.000 Z-16.000 I0.000 J3.000 K0.000 F750.000
G1 X3.000 Y276.000 Z-16.000 F750.000
G2 X6.000 Y279.000 Z-16.000 I3.000 J0.000 K0.000 F750.000
G1 X56.000 Y279.000 Z-16.000 F750.000
G2 X58.121 Y278.121 Z-16.000 I0.000 J-3.000 K0.000 F750.000
G1 X58.121 Y278.121 Z-17.000 F120.000
G2 X59.000 Y276.000 Z-17.000 I-2.121 J-2.121 K0.000 F750.000
G1 X59.000 Y6.000 Z-17.000 F750.000
G2 X56.000 Y3.000 Z-17.000 I-3.000 J0.000 K0.000 F750.000
G1 X6.000 Y3.000 Z-17.000 F750.000
G2 X3.000 Y6.000 Z-17.000 I0.000 J3.000 K0.000 F750.000
G1 X3.000 Y276.000 Z-17.000 F750.000
G2 X6.000 Y279.000 Z-17.000 I3.000 J0.000 K0.000 F750.000
G1 X56.000 Y279.000 Z-17.000 F750.000
G2 X58.121 Y278.121 Z-17.000 I0.000 J-3.000 K0.000 F750.000
G1 X58.121 Y278.121 Z-18.000 F120.000
G2 X59.000 Y276.000 Z-18.000 I-2.121 J-2.121 K0.000 F750.000
G1 X59.000 Y6.000 Z-18.000 F750.000
G2 X56.000 Y3.000 Z-18.000 I-3.000 J0.000 K0.000 F750.000
G1 X6.000 Y3.000 Z-18.000 F750.000
G2 X3.000 Y6.000 Z-18.000 I0.000 J3.000 K0.000 F750.000
G1 X3.000 Y276.000 Z-18.000 F750.000
G2 X6.000 Y279.000 Z-18.000 I3.000 J0.000 K0.000 F750.000
G1 X56.000 Y279.000 Z-18.000 F750.000
G2 X58.121 Y278.121 Z-18.000 I0.000 J-3.000 K0.000 F750.000
G1 X58.121 Y278.121 Z-19.000 F120.000
G2 X59.000 Y276.000 Z-19.000 I-2.121 J-2.121 K0.000 F750.000
G1 X59.000 Y6.000 Z-19.000 F750.000
G2 X56.000 Y3.000 Z-19.000 I-3.000 J0.000 K0.000 F750.000
G1 X6.000 Y3.000 Z-19.000 F750.000
G2 X3.000 Y6.000 Z-19.000 I0.000 J3.000 K0.000 F750.000
G1 X3.000 Y276.000 Z-19.000 F750.000
G2 X6.000 Y279.000 Z-19.000 I3.000 J0.000 K0.000 F750.000
G1 X56.000 Y279.000 Z-19.000 F750.000
G2 X58.121 Y278.121 Z-19.000 I0.000 J-3.000 K0.000 F750.000
G1 X58.121 Y278.121 Z-20.000 F120.000
G2 X59.000 Y276.000 Z-20.000 I-2.121 J-2.121 K0.000 F750.000
G1 X59.000 Y6.000 Z-20.000 F750.000
G2 X56.000 Y3.000 Z-20.000 I-3.000 J0.000 K0.000 F750.000
G1 X6.000 Y3.000 Z-20.000 F750.000
G2 X3.000 Y6.000 Z-20.000 I0.000 J3.000 K0.000 F750.000
G1 X3.000 Y276.000 Z-20.000 F750.000
G2 X6.000 Y279.000 Z-20.000 I3.000 J0.000 K0.000 F750.000
G1 X56.000 Y279.000 Z-20.000 F750.000
G2 X58.121 Y278.121 Z-20.000 I0.000 J-3.000 K0.000 F750.000
G1 X58.121 Y278.121 Z-21.000 F120.000
G2 X59.000 Y276.000 Z-21.000 I-2.121 J-2.121 K0.000 F750.000
G1 X59.000 Y6.000 Z-21.000 F750.000
G2 X56.000 Y3.000 Z-21.000 I-3.000 J0.000 K0.000 F750.000
G1 X6.000 Y3.000 Z-21.000 F750.000
G2 X3.000 Y6.000 Z-21.000 I0.000 J3.000 K0.000 F750.000
G1 X3.000 Y276.000 Z-21.000 F750.000
G2 X6.000 Y279.000 Z-21.000 I3.000 J0.000 K0.000 F750.000
G1 X56.000 Y279.000 Z-21.000 F750.000
G2 X58.121 Y278.121 Z-21.000 I0.000 J-3.000 K0.000 F750.000
G1 X58.121 Y278.121 Z-22.000 F120.000
G2 X59.000 Y276.000 Z-22.000 I-2.121 J-2.121 K0.000 F750.000
G1 X59.000 Y6.000 Z-22.000 F750.000
G2 X56.000 Y3.000 Z-22.000 I-3.000 J0.000 K0.000 F750.000
G1 X6.000 Y3.000 Z-22.000 F750.000
G2 X3.000 Y6.000 Z-22.000 I0.000 J3.000 K0.000 F750.000
G1 X3.000 Y276.000 Z-22.000 F750.000
G2 X6.000 Y279.000 Z-22.000 I3.000 J0.000 K0.000 F750.000
G1 X56.000 Y279.000 Z-22.000 F750.000
G2 X58.121 Y278.121 Z-22.000 I0.000 J-3.000 K0.000 F750.000
G1 X58.121 Y278.121 Z-23.000 F120.000
G2 X59.000 Y276.000 Z-23.000 I-2.121 J-2.121 K0.000 F750.000
G1 X59.000 Y6.000 Z-23.000 F750.000
G2 X56.000 Y3.000 Z-23.000 I-3.000 J0.000 K0.000 F750.000
G1 X6.000 Y3.000 Z-23.000 F750.000
G2 X3.000 Y6.000 Z-23.000 I0.000 J3.000 K0.000 F750.000
G1 X3.000 Y276.000 Z-23.000 F750.000
G2 X6.000 Y279.000 Z-23.000 I3.000 J0.000 K0.000 F750.000
G1 X56.000 Y279.000 Z-23.000 F750.000
G2 X58.121 Y278.121 Z-23.000 I0.000 J-3.000 K0.000 F750.000
G1 X58.121 Y278.121 Z-24.000 F120.000
G2 X59.000 Y276.000 Z-24.000 I-2.121 J-2.121 K0.000 F750.000
G1 X59.000 Y6.000 Z-24.000 F750.000
G2 X56.000 Y3.000 Z-24.000 I-3.000 J0.000 K0.000 F750.000
G1 X6.000 Y3.000 Z-24.000 F750.000
G2 X3.000 Y6.000 Z-24.000 I0.000 J3.000 K0.000 F750.000
G1 X3.000 Y276.000 Z-24.000 F750.000
G2 X6.000 Y279.000 Z-24.000 I3.000 J0.000 K0.000 F750.000
G1 X56.000 Y279.000 Z-24.000 F750.000
G2 X58.121 Y278.121 Z-24.000 I0.000 J-3.000 K0.000 F750.000
G1 X58.121 Y278.121 Z-25.000 F120.000
G2 X59.000 Y276.000 Z-25.000 I-2.121 J-2.121 K0.000 F750.000
G1 X59.000 Y6.000 Z-25.000 F750.000
G2 X56.000 Y3.000 Z-25.000 I-3.000 J0.000 K0.000 F750.000
G1 X6.000 Y3.000 Z-25.000 F750.000
G2 X3.000 Y6.000 Z-25.000 I0.000 J3.000 K0.000 F750.000
G1 X3.000 Y276.000 Z-25.000 F750.000
G2 X6.000 Y279.000 Z-25.000 I3.000 J0.000 K0.000 F750.000
G1 X56.000 Y279.000 Z-25.000 F750.000
G2 X58.121 Y278.121 Z-25.000 I0.000 J-3.000 K0.000 F750.000
G1 X58.121 Y278.121 Z-26.000 F120.000
G2 X59.000 Y276.000 Z-26.000 I-2.121 J-2.121 K0.000 F750.000
G1 X59.000 Y6.000 Z-26.000 F750.000
G2 X56.000 Y3.000 Z-26.000 I-3.000 J0.000 K0.000 F750.000
G1 X6.000 Y3.000 Z-26.000 F750.000
G2 X3.000 Y6.000 Z-26.000 I0.000 J3.000 K0.000 F750.000
G1 X3.000 Y276.000 Z-26.000 F750.000
G2 X6.000 Y279.000 Z-26.000 I3.000 J0.000 K0.000 F750.000
G1 X56.000 Y279.000 Z-26.000 F750.000
G2 X58.121 Y278.121 Z-26.000 I0.000 J-3.000 K0.000 F750.000
G1 X58.121 Y278.121 Z-27.000 F120.000
G2 X59.000 Y276.000 Z-27.000 I-2.121 J-2.121 K0.000 F750.000
G1 X59.000 Y6.000 Z-27.000 F750.000
G2 X56.000 Y3.000 Z-27.000 I-3.000 J0.000 K0.000 F750.000
G1 X6.000 Y3.000 Z-27.000 F750.000
G2 X3.000 Y6.000 Z-27.000 I0.000 J3.000 K0.000 F750.000
G1 X3.000 Y276.000 Z-27.000 F750.000
G2 X6.000 Y279.000 Z-27.000 I3.000 J0.000 K0.000 F750.000
G1 X56.000 Y279.000 Z-27.000 F750.000
G2 X58.121 Y278.121 Z-27.000 I0.000 J-3.000 K0.000 F750.000
G0 Z4.000
G0 Z4.000
(Finish operation: Profile)
(Begin operation: Profile001)
(Path: Profile001)
(Profile001)
(Compensated Tool Path. Diameter: 6.0)
G0 Z4.000
G0 X114.121 Y278.121
G0 Z2.000
G1 X114.121 Y278.121 Z-1.000 F120.000
G2 X115.000 Y276.000 Z-1.000 I-2.121 J-2.121 K0.000 F750.000
G1 X115.000 Y6.000 Z-1.000 F750.000
G2 X112.000 Y3.000 Z-1.000 I-3.000 J0.000 K0.000 F750.000
G1 X62.000 Y3.000 Z-1.000 F750.000
G2 X59.000 Y6.000 Z-1.000 I0.000 J3.000 K0.000 F750.000
G1 X59.000 Y276.000 Z-1.000 F750.000
G2 X62.000 Y279.000 Z-1.000 I3.000 J0.000 K0.000 F750.000
G1 X112.000 Y279.000 Z-1.000 F750.000
G2 X114.121 Y278.121 Z-1.000 I0.000 J-3.000 K0.000 F750.000
G1 X114.121 Y278.121 Z-2.000 F120.000
G2 X115.000 Y276.000 Z-2.000 I-2.121 J-2.121 K0.000 F750.000
G1 X115.000 Y6.000 Z-2.000 F750.000
G2 X112.000 Y3.000 Z-2.000 I-3.000 J0.000 K0.000 F750.000
G1 X62.000 Y3.000 Z-2.000 F750.000
G2 X59.000 Y6.000 Z-2.000 I0.000 J3.000 K0.000 F750.000
G1 X59.000 Y276.000 Z-2.000 F750.000
G2 X62.000 Y279.000 Z-2.000 I3.000 J0.000 K0.000 F750.000
G1 X112.000 Y279.000 Z-2.000 F750.000
G2 X114.121 Y278.121 Z-2.000 I0.000 J-3.000 K0.000 F750.000
G1 X114.121 Y278.121 Z-3.000 F120.000
G2 X115.000 Y276.000 Z-3.000 I-2.121 J-2.121 K0.000 F750.000
G1 X115.000 Y6.000 Z-3.000 F750.000
G2 X112.000 Y3.000 Z-3.000 I-3.000 J0.000 K0.000 F750.000
G1 X62.000 Y3.000 Z-3.000 F750.000
G2 X59.000 Y6.000 Z-3.000 I0.000 J3.000 K0.000 F750.000
G1 X59.000 Y276.000 Z-3.000 F750.000
G2 X62.000 Y279.000 Z-3.000 I3.000 J0.000 K0.000 F750.000
G1 X112.000 Y279.000 Z-3.000 F750.000
G2 X114.121 Y278.121 Z-3.000 I0.000 J-3.000 K0.000 F750.000
G1 X114.121 Y278.121 Z-4.000 F120.000
G2 X115.000 Y276.000 Z-4.000 I-2.121 J-2.121 K0.000 F750.000
G1 X115.000 Y6.000 Z-4.000 F750.000
G2 X112.000 Y3.000 Z-4.000 I-3.000 J0.000 K0.000 F750.000
G1 X62.000 Y3.000 Z-4.000 F750.000
G2 X59.000 Y6.000 Z-4.000 I0.000 J3.000 K0.000 F750.000
G1 X59.000 Y276.000 Z-4.000 F750.000
G2 X62.000 Y279.000 Z-4.000 I3.000 J0.000 K0.000 F750.000
G1 X112.000 Y279.000 Z-4.000 F750.000
G2 X114.121 Y278.121 Z-4.000 I0.000 J-3.000 K0.000 F750.000
G1 X114.121 Y278.121 Z-5.000 F120.000
G2 X115.000 Y276.000 Z-5.000 I-2.121 J-2.121 K0.000 F750.000
G1 X115.000 Y6.000 Z-5.000 F750.000
G2 X112.000 Y3.000 Z-5.000 I-3.000 J0.000 K0.000 F750.000
G1 X62.000 Y3.000 Z-5.000 F750.000
G2 X59.000 Y6.000 Z-5.000 I0.000 J3.000 K0.000 F750.000
G1 X59.000 Y276.000 Z-5.000 F750.000
G2 X62.000 Y279.000 Z-5.000 I3.000 J0.000 K0.000 F750.000
G1 X112.000 Y279.000 Z-5.000 F750.000
G2 X114.121 Y278.121 Z-5.000 I0.000 J-3.000 K0.000 F750.000
G1 X114.121 Y278.121 Z-6.000 F120.000
G2 X115.000 Y276.000 Z-6.000 I-2.121 J-2.121 K0.000 F750.000
G1 X115.000 Y6.000 Z-6.000 F750.000
G2 X112.000 Y3.000 Z-6.000 I-3.000 J0.000 K0.000 F750.000
G1 X62.000 Y3.000 Z-6.000 F750.000
G2 X59.000 Y6.000 Z-6.000 I0.000 J3.000 K0.000 F750.000
G1 X59.000 Y276.000 Z-6.000 F750.000
G2 X62.000 Y279.000 Z-6.000 I3.000 J0.000 K0.000 F750.000
G1 X112.000 Y279.000 Z-6.000 F750.000
G2 X114.121 Y278.121 Z-6.000 I0.000 J-3.000 K0.000 F750.000
G1 X114.121 Y278.121 Z-7.000 F120.000
G2 X115.000 Y276.000 Z-7.000 I-2.121 J-2.121 K0.000 F750.000
G1 X115.000 Y6.000 Z-7.000 F750.000
G2 X112.000 Y3.000 Z-7.000 I-3.000 J0.000 K0.000 F750.000
G1 X62.000 Y3.000 Z-7.000 F750.000
G2 X59.000 Y6.000 Z-7.000 I0.000 J3.000 K0.000 F750.000
G1 X59.000 Y276.000 Z-7.000 F750.000
G2 X62.000 Y279.000 Z-7.000 I3.000 J0.000 K0.000 F750.000
G1 X112.000 Y279.000 Z-7.000 F750.000
G2 X114.121 Y278.121 Z-7.000 I0.000 J-3.000 K0.000 F750.000
G1 X114.121 Y278.121 Z-8.000 F120.000
G2 X115.000 Y276.000 Z-8.000 I-2.121 J-2.121 K0.000 F750.000
G1 X115.000 Y6.000 Z-8.000 F750.000
G2 X112.000 Y3.000 Z-8.000 I-3.000 J0.000 K0.000 F750.000
G1 X62.000 Y3.000 Z-8.000 F750.000
G2 X59.000 Y6.000 Z-8.000 I0.000 J3.000 K0.000 F750.000
G1 X59.000 Y276.000 Z-8.000 F750.000
G2 X62.000 Y279.000 Z-8.000 I3.000 J0.000 K0.000 F750.000
G1 X112.000 Y279.000 Z-8.000 F750.000
G2 X114.121 Y278.121 Z-8.000 I0.000 J-3.000 K0.000 F750.000
G1 X114.121 Y278.121 Z-9.000 F120.000
G2 X115.000 Y276.000 Z-9.000 I-2.121 J-2.121 K0.000 F750.000
G1 X115.000 Y6.000 Z-9.000 F750.000
G2 X112.000 Y3.000 Z-9.000 I-3.000 J0.000 K0.000 F750.000
G1 X62.000 Y3.000 Z-9.000 F750.000
G2 X59.000 Y6.000 Z-9.000 I0.000 J3.000 K0.000 F750.000
G1 X59.000 Y276.000 Z-9.000 F750.000
G2 X62.000 Y279.000 Z-9.000 I3.000 J0.000 K0.000 F750.000
G1 X112.000 Y279.000 Z-9.000 F750.000
G2 X114.121 Y278.121 Z-9.000 I0.000 J-3.000 K0.000 F750.000
G1 X114.121 Y278.121 Z-10.000 F120.000
G2 X115.000 Y276.000 Z-10.000 I-2.121 J-2.121 K0.000 F750.000
G1 X115.000 Y6.000 Z-10.000 F750.000
G2 X112.000 Y3.000 Z-10.000 I-3.000 J0.000 K0.000 F750.000
G1 X62.000 Y3.000 Z-10.000 F750.000
G2 X59.000 Y6.000 Z-10.000 I0.000 J3.000 K0.000 F750.000
G1 X59.000 Y276.000 Z-10.000 F750.000
G2 X62.000 Y279.000 Z-10.000 I3.000 J0.000 K0.000 F750.000
G1 X112.000 Y279.000 Z-10.000 F750.000
G2 X114.121 Y278.121 Z-10.000 I0.000 J-3.000 K0.000 F750.000
G1 X114.121 Y278.121 Z-11.000 F120.000
G2 X115.000 Y276.000 Z-11.000 I-2.121 J-2.121 K0.000 F750.000
G1 X115.000 Y6.000 Z-11.000 F750.000
G2 X112.000 Y3.000 Z-11.000 I-3.000 J0.000 K0.000 F750.000
G1 X62.000 Y3.000 Z-11.000 F750.000
G2 X59.000 Y6.000 Z-11.000 I0.000 J3.000 K0.000 F750.000
G1 X59.000 Y276.000 Z-11.000 F750.000
G2 X62.000 Y279.000 Z-11.000 I3.000 J0.000 K0.000 F750.000
G1 X112.000 Y279.000 Z-11.000 F750.000
G2 X114.121 Y278.121 Z-11.000 I0.000 J-3.000 K0.000 F750.000
G1 X114.121 Y278.121 Z-12.000 F120.000
G2 X115.000 Y276.000 Z-12.000 I-2.121 J-2.121 K0.000 F750.000
G1 X115.000 Y6.000 Z-12.000 F750.000
G2 X112.000 Y3.000 Z-12.000 I-3.000 J0.000 K0.000 F750.000
G1 X62.000 Y3.000 Z-12.000 F750.000
G2 X59.000 Y6.000 Z-12.000 I0.000 J3.000 K0.000 F750.000
G1 X59.000 Y276.000 Z-12.000 F750.000
G2 X62.000 Y279.000 Z-12.000 I3.000 J0.000 K0.000 F750.000
G1 X112.000 Y279.000 Z-12.000 F750.000
G2 X114.121 Y278.121 Z-12.000 I0.000 J-3.000 K0.000 F750.000
G1 X114.121 Y278.121 Z-13.000 F120.000
G2 X115.000 Y276.000 Z-13.000 I-2.121 J-2.121 K0.000 F750.000
G1 X115.000 Y6.000 Z-13.000 F750.000
G2 X112.000 Y3.000 Z-13.000 I-3.000 J0.000 K0.000 F750.000
G1 X62.000 Y3.000 Z-13.000 F750.000
G2 X59.000 Y6.000 Z-13.000 I0.000 J3.000 K0.000 F750.000
G1 X59.000 Y276.000 Z-13.000 F750.000
G2 X62.000 Y279.000 Z-13.000 I3.000 J0.000 K0.000 F750.000
G1 X112.000 Y279.000 Z-13.000 F750.000
G2 X114.121 Y278.121 Z-13.000 I0.000 J-3.000 K0.000 F750.000
G1 X114.121 Y278.121 Z-14.000 F120.000
G2 X115.000 Y276.000 Z-14.000 I-2.121 J-2.121 K0.000 F750.000
G1 X115.000 Y6.000 Z-14.000 F750.000
G2 X112.000 Y3.000 Z-14.000 I-3.000 J0.000 K0.000 F750.000
G1 X62.000 Y3.000 Z-14.000 F750.000
G2 X59.000 Y6.000 Z-14.000 I0.000 J3.000 K0.000 F750.000
G1 X59.000 Y276.000 Z-14.000 F750.000
G2 X62.000 Y279.000 Z-14.000 I3.000 J0.000 K0.000 F750.000
G1 X112.000 Y279.000 Z-14.000 F750.000
G2 X114.121 Y278.121 Z-14.000 I0.000 J-3.000 K0.000 F750.000
G1 X114.121 Y278.121 Z-15.000 F120.000
G2 X115.000 Y276.000 Z-15.000 I-2.121 J-2.121 K0.000 F750.000
G1 X115.000 Y6.000 Z-15.000 F750.000
G2 X112.000 Y3.000 Z-15.000 I-3.000 J0.000 K0.000 F750.000
G1 X62.000 Y3.000 Z-15.000 F750.000
G2 X59.000 Y6.000 Z-15.000 I0.000 J3.000 K0.000 F750.000
G1 X59.000 Y276.000 Z-15.000 F750.000
G2 X62.000 Y279.000 Z-15.000 I3.000 J0.000 K0.000 F750.000
G1 X112.000 Y279.000 Z-15.000 F750.000
G2 X114.121 Y278.121 Z-15.000 I0.000 J-3.000 K0.000 F750.000
G1 X114.121 Y278.121 Z-16.000 F120.000
G2 X115.000 Y276.000 Z-16.000 I-2.121 J-2.121 K0.000 F750.000
G1 X115.000 Y6.000 Z-16.000 F750.000
G2 X112.000 Y3.000 Z-16.000 I-3.000 J0.000 K0.000 F750.000
G1 X62.000 Y3.000 Z-16.000 F750.000
G2 X59.000 Y6.000 Z-16.000 I0.000 J3.000 K0.000 F750.000
G1 X59.000 Y276.000 Z-16.000 F750.000
G2 X62.000 Y279.000 Z-16.000 I3.000 J0.000 K0.000 F750.000
G1 X112.000 Y279.000 Z-16.000 F750.000
G2 X114.121 Y278.121 Z-16.000 I0.000 J-3.000 K0.000 F750.000
G1 X114.121 Y278.121 Z-17.000 F120.000
G2 X115.000 Y276.000 Z-17.000 I-2.121 J-2.121 K0.000 F750.000
G1 X115.000 Y6.000 Z-17.000 F750.000
G2 X112.000 Y3.000 Z-17.000 I-3.000 J0.000 K0.000 F750.000
G1 X62.000 Y3.000 Z-17.000 F750.000
G2 X59.000 Y6.000 Z-17.000 I0.000 J3.000 K0.000 F750.000
G1 X59.000 Y276.000 Z-17.000 F750.000
G2 X62.000 Y279.000 Z-17.000 I3.000 J0.000 K0.000 F750.000
G1 X112.000 Y279.000 Z-17.000 F750.000
G2 X114.121 Y278.121 Z-17.000 I0.000 J-3.000 K0.000 F750.000
G1 X114.121 Y278.121 Z-18.000 F120.000
G2 X115.000 Y276.000 Z-18.000 I-2.121 J-2.121 K0.000 F750.000
G1 X115.000 Y6.000 Z-18.000 F750.000
G2 X112.000 Y3.000 Z-18.000 I-3.000 J0.000 K0.000 F750.000
G1 X62.000 Y3.000 Z-18.000 F750.000
G2 X59.000 Y6.000 Z-18.000 I0.000 J3.000 K0.000 F750.000
G1 X59.000 Y276.000 Z-18.000 F750.000
G2 X62.000 Y279.000 Z-18.000 I3.000 J0.000 K0.000 F750.000
G1 X112.000 Y279.000 Z-18.000 F750.000
G2 X114.121 Y278.121 Z-18.000 I0.000 J-3.000 K0.000 F750.000
G1 X114.121 Y278.121 Z-19.000 F120.000
G2 X115.000 Y276.000 Z-19.000 I-2.121 J-2.121 K0.000 F750.000
G1 X115.000 Y6.000 Z-19.000 F750.000
G2 X112.000 Y3.000 Z-19.000 I-3.000 J0.000 K0.000 F750.000
G1 X62.000 Y3.000 Z-19.000 F750.000
G2 X59.000 Y6.000 Z-19.000 I0.000 J3.000 K0.000 F750.000
G1 X59.000 Y276.000 Z-19.000 F750.000
G2 X62.000 Y279.000 Z-19.000 I3.000 J0.000 K0.000 F750.000
G1 X112.000 Y279.000 Z-19.000 F750.000
G2 X114.121 Y278.121 Z-19.000 I0.000 J-3.000 K0.000 F750.000
G1 X114.121 Y278.121 Z-20.000 F120.000
G2 X115.000 Y276.000 Z-20.000 I-2.121 J-2.121 K0.000 F750.000
G1 X115.000 Y6.000 Z-20.000 F750.000
G2 X112.000 Y3.000 Z-20.000 I-3.000 J0.000 K0.000 F750.000
G1 X62.000 Y3.000 Z-20.000 F750.000
G2 X59.000 Y6.000 Z-20.000 I0.000 J3.000 K0.000 F750.000
G1 X59.000 Y276.000 Z-20.000 F750.000
G2 X62.000 Y279.000 Z-20.000 I3.000 J0.000 K0.000 F750.000
G1 X112.000 Y279.000 Z-20.000 F750.000
G2 X114.121 Y278.121 Z-20.000 I0.000 J-3.000 K0.000 F750.000
G1 X114.121 Y278.121 Z-21.000 F120.000
G2 X115.000 Y276.000 Z-21.000 I-2.121 J-2.121 K0.000 F750.000
G1 X115.000 Y6.000 Z-21.000 F750.000
G2 X112.000 Y3.000 Z-21.000 I-3.000 J0.000 K0.000 F750.000
G1 X62.000 Y3.000 Z-21.000 F750.000
G2 X59.000 Y6.000 Z-21.000 I0.000 J3.000 K0.000 F750.000
G1 X59.000 Y276.000 Z-21.000 F750.000
G2 X62.000 Y279.000 Z-21.000 I3.000 J0.000 K0.000 F750.000
G1 X112.000 Y279.000 Z-21.000 F750.000
G2 X114.121 Y278.121 Z-21.000 I0.000 J-3.000 K0.000 F750.000
G1 X114.121 Y278.121 Z-22.000 F120.000
G2 X115.000 Y276.000 Z-22.000 I-2.121 J-2.121 K0.000 F750.000
G1 X115.000 Y6.000 Z-22.000 F750.000
G2 X112.000 Y3.000 Z-22.000 I-3.000 J0.000 K0.000 F750.000
G1 X62.000 Y3.000 Z-22.000 F750.000
G2 X59.000 Y6.000 Z-22.000 I0.000 J3.000 K0.000 F750.000
G1 X59.000 Y276.000 Z-22.000 F750.000
G2 X62.000 Y279.000 Z-22.000 I3.000 J0.000 K0.000 F750.000
G1 X112.000 Y279.000 Z-22.000 F750.000
G2 X114.121 Y278.121 Z-22.000 I0.000 J-3.000 K0.000 F750.000
G1 X114.121 Y278.121 Z-23.000 F120.000
G2 X115.000 Y276.000 Z-23.000 I-2.121 J-2.121 K0.000 F750.000
G1 X115.000 Y6.000 Z-23.000 F750.000
G2 X112.000 Y3.000 Z-23.000 I-3.000 J0.000 K0.000 F750.000
G1 X62.000 Y3.000 Z-23.000 F750.000
G2 X59.000 Y6.000 Z-23.000 I0.000 J3.000 K0.000 F750.000
G1 X59.000 Y276.000 Z-23.000 F750.000
G2 X62.000 Y279.000 Z-23.000 I3.000 J0.000 K0.000 F750.000
G1 X112.000 Y279.000 Z-23.000 F750.000
G2 X114.121 Y278.121 Z-23.000 I0.000 J-3.000 K0.000 F750.000
G1 X114.121 Y278.121 Z-24.000 F120.000
G2 X115.000 Y276.000 Z-24.000 I-2.121 J-2.121 K0.000 F750.000
G1 X115.000 Y6.000 Z-24.000 F750.000
G2 X112.000 Y3.000 Z-24.000 I-3.000 J0.000 K0.000 F750.000
G1 X62.000 Y3.000 Z-24.000 F750.000
G2 X59.000 Y6.000 Z-24.000 I0.000 J3.000 K0.000 F750.000
G1 X59.000 Y276.000 Z-24.000 F750.000
G2 X62.000 Y279.000 Z-24.000 I3.000 J0.000 K0.000 F750.000
G1 X112.000 Y279.000 Z-24.000 F750.000
G2 X114.121 Y278.121 Z-24.000 I0.000 J-3.000 K0.000 F750.000
G1 X114.121 Y278.121 Z-25.000 F120.000
G2 X115.000 Y276.000 Z-25.000 I-2.121 J-2.121 K0.000 F750.000
G1 X115.000 Y6.000 Z-25.000 F750.000
G2 X112.000 Y3.000 Z-25.000 I-3.000 J0.000 K0.000 F750.000
G1 X62.000 Y3.000 Z-25.000 F750.000
G2 X59.000 Y6.000 Z-25.000 I0.000 J3.000 K0.000 F750.000
G1 X59.000 Y276.000 Z-25.000 F750.000
G2 X62.000 Y279.000 Z-25.000 I3.000 J0.000 K0.000 F750.000
G1 X112.000 Y279.000 Z-25.000 F750.000
G2 X114.121 Y278.121 Z-25.000 I0.000 J-3.000 K0.000 F750.000
G1 X114.121 Y278.121 Z-26.000 F120.000
G2 X115.000 Y276.000 Z-26.000 I-2.121 J-2.121 K0.000 F750.000
G1 X115.000 Y6.000 Z-26.000 F750.000
G2 X112.000 Y3.000 Z-26.000 I-3.000 J0.000 K0.000 F750.000
G1 X62.000 Y3.000 Z-26.000 F750.000
G2 X59.000 Y6.000 Z-26.000 I0.000 J3.000 K0.000 F750.000
G1 X59.000 Y276.000 Z-26.000 F750.000
G2 X62.000 Y279.000 Z-26.000 I3.000 J0.000 K0.000 F750.000
G1 X112.000 Y279.000 Z-26.000 F750.000
G2 X114.121 Y278.121 Z-26.000 I0.000 J-3.000 K0.000 F750.000
G1 X114.121 Y278.121 Z-27.000 F120.000
G2 X115.000 Y276.000 Z-27.000 I-2.121 J-2.121 K0.000 F750.000
G1 X115.000 Y6.000 Z-27.000 F750.000
G2 X112.000 Y3.000 Z-27.000 I-3.000 J0.000 K0.000 F750.000
G1 X62.000 Y3.000 Z-27.000 F750.000
G2 X59.000 Y6.000 Z-27.000 I0.000 J3.000 K0.000 F750.000
G1 X59.000 Y276.000 Z-27.000 F750.000
G2 X62.000 Y279.000 Z-27.000 I3.000 J0.000 K0.000 F750.000
G1 X112.000 Y279.000 Z-27.000 F750.000
G2 X114.121 Y278.121 Z-27.000 I0.000 J-3.000 K0.000 F750.000
G0 Z4.000
G0 Z4.000
(Finish operation: Profile001)
(Begin postamble)
M5
G17 G90
M2
